assets/svg/app/exit.svg

<svg width="16" height="16" viewBox="0 0 16 16" fill="none" xmlns="http://www.w3.org/2000/svg">
<path fill-rule="evenodd" clip-rule="evenodd" d="M3.33333 2H12.6667C13.4 2 14 2.6 14 3.33333V12.6667C14 13.4 13.4 14 12.6667 14H3.33333C2.59333 14 2 13.4 2 12.6667V10H3.33333V12.6667H12.6667V3.33333H3.33333V6H2V3.33333C2 2.6 2.59333 2 3.33333 2ZM7.66667 11.3333L6.72667 10.3933L8.44667 8.66667H2V7.33333H8.44667L6.72667 5.60667L7.66667 4.66667L11 8L7.66667 11.3333Z" fill="#ED1EFF"/>
</svg>

<svg width="16" height="16" fill="none" xmlns="http://www.w3.org/2000/svg">
    <path fill-rule="evenodd" clip-rule="evenodd" d="M3.333 2h9.334C13.4 2 14 2.6 14 3.333v9.334C14 13.4 13.4 14 12.667 14H3.333C2.593 14 2 13.4 2 12.667V10h1.333v2.667h9.334V3.333H3.333V6H2V3.333C2 2.6 2.593 2 3.333 2Zm4.334 9.333-.94-.94 1.72-1.726H2V7.333h6.447l-1.72-1.726.94-.94L11 8l-3.333 3.333Z" fill="#ED1EFF"/>
</svg>
